public/icons/info.svg

<svg width="24" height="24" viewBox="0 0 24 24" fill="none" xmlns="http://www.w3.org/2000/svg">
<g id="info 2" clip-path="url(#clip0_380_1859)">
<g id="design">
<g id="Group">
<path id="Vector" d="M12 17C11.59 17 11.25 16.66 11.25 16.25V11.25C11.25 10.84 11.59 10.5 12 10.5C12.41 10.5 12.75 10.84 12.75 11.25V16.25C12.75 16.66 12.41 17 12 17Z" fill="#212934"/>
<path id="Vector_2" d="M12 8.99995C11.74 8.99995 11.48 8.88995 11.29 8.70995C11.2 8.60995 11.13 8.50995 11.08 8.37995C11.03 8.25995 11 8.12995 11 7.99995C11 7.73995 11.11 7.47995 11.29 7.28995C11.67 6.91995 12.33 6.91995 12.7 7.28995C12.89 7.47995 13 7.73995 13 7.99995C13 8.12995 12.97 8.25995 12.92 8.37995C12.87 8.50995 12.8 8.60995 12.7 8.70995C12.61 8.79995 12.5 8.86995 12.38 8.91995C12.26 8.96995 12.13 8.99995 12 8.99995Z" fill="#212934"/>
<path id="Vector_3" d="M11.9901 21.9999C9.41006 21.9999 6.97006 21.0299 5.10006 19.2399C3.17006 17.3999 2.07006 14.9099 2.00006 12.2399C1.93006 9.56994 2.92006 7.03994 4.76006 5.09994C6.60006 3.16994 9.09006 2.06994 11.7601 1.99994C14.4101 1.93994 16.9701 2.90994 18.9001 4.75994C20.8301 6.59994 21.9301 9.08994 22.0001 11.7599C22.0601 14.4299 21.0901 16.9699 19.2401 18.8999C17.4001 20.8299 14.9101 21.9299 12.2401 21.9999C12.1601 21.9999 12.0801 21.9999 11.9901 21.9999ZM12.0101 3.49994C11.9401 3.49994 11.8701 3.49994 11.8001 3.49994C9.52006 3.55994 7.41006 4.48994 5.85006 6.13994C4.28006 7.77994 3.45006 9.93994 3.51006 12.2099C3.56006 14.4799 4.50006 16.5899 6.14006 18.1599C7.78006 19.7299 9.95006 20.5599 12.2101 20.4999C14.4801 20.4499 16.5901 19.5099 18.1601 17.8699C19.7301 16.2299 20.5601 14.0699 20.5001 11.7999C20.4501 9.52994 19.5101 7.41994 17.8701 5.84994C16.2701 4.32994 14.2001 3.49994 12.0101 3.49994Z" fill="#212934"/>
</g>
</g>
</g>
<defs>
<clipPath id="clip0_380_1859">
<rect width="24" height="24" fill="white"/>
</clipPath>
</defs>
</svg>

<?xml version="1.0" encoding="utf-8"?>
<!-- Generator: Adobe Illustrator 24.0.2, SVG Export Plug-In . SVG Version: 6.00 Build 0)  -->
<svg version="1.1" xmlns="http://www.w3.org/2000/svg" xmlns:xlink="http://www.w3.org/1999/xlink" x="0px" y="0px"
	 viewBox="0 0 24 24" style="enable-background:new 0 0 24 24;" xml:space="preserve">
<style type="text/css">
	.st0{fill:none;}
	.st1{fill:#434D5A;}
</style>
<g id="bounding_area">
	<rect class="st0" width="24" height="24"/>
</g>
<g id="design">
	<g>
		<path class="st1" d="M12,17c-0.41,0-0.75-0.34-0.75-0.75v-5c0-0.41,0.34-0.75,0.75-0.75s0.75,0.34,0.75,0.75v5
			C12.75,16.66,12.41,17,12,17z"/>
		<path class="st1" d="M12,9c-0.26,0-0.52-0.11-0.71-0.29c-0.09-0.1-0.16-0.2-0.21-0.33C11.03,8.26,11,8.13,11,8
			c0-0.26,0.11-0.52,0.29-0.71c0.38-0.37,1.04-0.37,1.41,0C12.89,7.48,13,7.74,13,8c0,0.13-0.03,0.26-0.08,0.38
			c-0.05,0.13-0.12,0.23-0.22,0.33c-0.09,0.09-0.2,0.16-0.32,0.21C12.26,8.97,12.13,9,12,9z"/>
		<path class="st1" d="M11.99,22c-2.58,0-5.02-0.97-6.89-2.76c-1.93-1.84-3.03-4.33-3.1-7S2.92,7.04,4.76,5.1
			c1.84-1.93,4.33-3.03,7-3.1c2.65-0.06,5.21,0.91,7.14,2.76c1.93,1.84,3.03,4.33,3.1,7l0,0c0.06,2.67-0.91,5.21-2.76,7.14
			c-1.84,1.93-4.33,3.03-7,3.1C12.16,22,12.08,22,11.99,22z M12.01,3.5c-0.07,0-0.14,0-0.21,0C9.52,3.56,7.41,4.49,5.85,6.14
			c-1.57,1.64-2.4,3.8-2.34,6.07c0.05,2.27,0.99,4.38,2.63,5.95c1.64,1.57,3.81,2.4,6.07,2.34c2.27-0.05,4.38-0.99,5.95-2.63
			s2.4-3.8,2.34-6.07l0,0c-0.05-2.27-0.99-4.38-2.63-5.95C16.27,4.33,14.2,3.5,12.01,3.5z"/>
	</g>
</g>
</svg>
